X: 415
T: A Trip To Inishturk
R: reel
M: 4/4
K: Bdorian
~B3A FBBc|BAFE FAAF|EDCE ABce|ecfc ecdc|
B2BA FBBc|BAFE FAAF|EDCE ABce|1 ecBe cAdc:|2 ecBe cA~A2||
|:(3efg ab afed|ceef (3ecB AF|EDCE ABce|ecAB cB~B2|
eaab afed|ceed cBAF|EDCE ABce|1 ecBe cA~A2:|2 ecBe cAdc||

